ncols 60
nrows 44
xllcorner -1.0
yllcorner -11.0
cellsize 0.5
NODATA_value -9999
0.0003 0.0004 0.0006 0.0008 0.0012 0.0016 0.0021 0.0027 0.0035 0.0044 0.0053 0.0064 0.0076 0.0087 0.0099 0.0109 0.0118 0.0126 0.0131 0.0134 0.0134 0.0131 0.0126 0.0118 0.0109 0.0099 0.0087 0.0076 0.0064 0.0053 0.0044 0.0035 0.0027 0.0021 0.0016 0.0012 0.0008 0.0006 0.0004 0.0003 0.0002 0.0001 0.0001 0.0 0.0 0.0 0.0 0.0 0.0 0.0 0.0 0.0 0.0 0.0 0.0 0.0 0.0 0.0 0.0 0.0
0.0004 0.0006 0.0009 0.0013 0.0018 0.0024 0.0032 0.0042 0.0053 0.0067 0.0082 0.0099 0.0116 0.0134 0.0151 0.0167 0.0182 0.0193 0.0201 0.0205 0.0205 0.0201 0.0193 0.0182 0.0167 0.0151 0.0134 0.0116 0.0099 0.0082 0.0067 0.0053 0.0042 0.0032 0.0024 0.0018 0.0013 0.0009 0.0006 0.0004 0.0003 0.0002 0.0001 0.0001 0.0 0.0 0.0 0.0 0.0 0.0 0.0 0.0 0.0 0.0 0.0 0.0 0.0 0.0 0.0 0.0
0.0006 0.0009 0.0014 0.0019 0.0027 0.0036 0.0048 0.0063 0.008 0.0101 0.0123 0.0148 0.0174 0.0201 0.0227 0.0252 0.0273 0.0291 0.0303 0.0309 0.0309 0.0303 0.0291 0.0273 0.0252 0.0227 0.0201 0.0174 0.0148 0.0123 0.0101 0.008 0.0063 0.0048 0.0036 0.0027 0.0019 0.0014 0.0009 0.0006 0.0004 0.0003 0.0002 0.0001 0.0001 0.0 0.0 0.0 0.0 0.0 0.0 0.0 0.0 0.0 0.0 0.0 0.0 0.0 0.0 0.0
0.0009 0.0014 0.002 0.0028 0.0039 0.0053 0.0071 0.0093 0.0118 0.0148 0.0182 0.0218 0.0257 0.0297 0.0335 0.0371 0.0403 0.0428 0.0446 0.0455 0.0455 0.0446 0.0428 0.0403 0.0371 0.0335 0.0297 0.0257 0.0218 0.0182 0.0148 0.0118 0.0093 0.0071 0.0053 0.0039 0.0028 0.002 0.0014 0.0009 0.0006 0.0004 0.0003 0.0002 0.0001 0.0001 0.0 0.0 0.0 0.0 0.0 0.0 0.0 0.0 0.0 0.0 0.0 0.0 0.0 0.0
0.0014 0.002 0.0029 0.0041 0.0057 0.0077 0.0103 0.0134 0.0171 0.0214 0.0262 0.0315 0.0371 0.0428 0.0484 0.0536 0.0582 0.0618 0.0644 0.0657 0.0657 0.0644 0.0618 0.0582 0.0536 0.0484 0.0428 0.0371 0.0315 0.0262 0.0214 0.0171 0.0134 0.0103 0.0077 0.0057 0.0041 0.0029 0.002 0.0014 0.0009 0.0006 0.0004 0.0002 0.0001 0.0001 0.0001 0.0 0.0 0.0 0.0 0.0 0.0 0.0 0.0 0.0 0.0 0.0 0.0 0.0
0.0019 0.0028 0.0041 0.0058 0.008 0.0109 0.0145 0.0189 0.0242 0.0303 0.0371 0.0446 0.0525 0.0606 0.0685 0.0758 0.0823 0.0875 0.0911 0.093 0.093 0.0911 0.0875 0.0823 0.0758 0.0685 0.0606 0.0525 0.0446 0.0371 0.0303 0.0242 0.0189 0.0145 0.0109 0.008 0.0058 0.0041 0.0028 0.0019 0.0013 0.0008 0.0005 0.0003 0.0002 0.0001 0.0001 0.0 0.0 0.0 0.0 0.0 0.0 0.0 0.0 0.0 0.0 0.0 0.0 0.0
0.0027 0.0039 0.0057 0.008 0.0111 0.0151 0.0201 0.0262 0.0335 0.042 0.0515 0.0618 0.0728 0.084 0.0949 0.1051 0.1141 0.1213 0.1263 0.1289 0.1289 0.1263 0.1213 0.1141 0.1051 0.0949 0.084 0.0728 0.0618 0.0515 0.042 0.0335 0.0262 0.0201 0.0151 0.0111 0.008 0.0057 0.0039 0.0027 0.0018 0.0012 0.0007 0.0005 0.0003 0.0002 0.0001 0.0001 0.0 0.0 0.0 0.0 0.0 0.0 0.0 0.0 0.0 0.0 0.0 0.0
0.0036 0.0053 0.0077 0.0109 0.0151 0.0205 0.0273 0.0356 0.0455 0.057 0.0699 0.084 0.0989 0.1141 0.1289 0.1428 0.1549 0.1647 0.1715 0.1751 0.1751 0.1715 0.1647 0.1549 0.1428 0.1289 0.1141 0.0989 0.084 0.0699 0.057 0.0455 0.0356 0.0273 0.0205 0.0151 0.0109 0.0077 0.0053 0.0036 0.0024 0.0016 0.001 0.0006 0.0004 0.0002 0.0001 0.0001 0.0 0.0 0.0 0.0 0.0 0.0 0.0 0.0 0.0 0.0 0.0 0.0
0.0048 0.0071 0.0103 0.0145 0.0201 0.0273 0.0364 0.0474 0.0606 0.0758 0.093 0.1118 0.1316 0.1518 0.1715 0.19 0.2061 0.2191 0.2283 0.233 0.233 0.2283 0.2191 0.2061 0.19 0.1715 0.1518 0.1316 0.1118 0.093 0.0758 0.0606 0.0474 0.0364 0.0273 0.0201 0.0145 0.0103 0.0071 0.0048 0.0032 0.0021 0.0013 0.0008 0.0005 0.0003 0.0002 0.0001 0.0001 0.0 0.0 0.0 0.0 0.0 0.0 0.0 0.0 0.0 0.0 0.0
0.0063 0.0093 0.0134 0.0189 0.0262 0.0356 0.0474 0.0618 0.079 0.0989 0.1213 0.1457 0.1715 0.1979 0.2237 0.2477 0.2688 0.2857 0.2976 0.3038 0.3038 0.2976 0.2857 0.2688 0.2477 0.2237 0.1979 0.1715 0.1457 0.1213 0.0989 0.079 0.0618 0.0474 0.0356 0.0262 0.0189 0.0134 0.0093 0.0063 0.0042 0.0027 0.0017 0.0011 0.0007 0.0004 0.0002 0.0001 0.0001 0.0 0.0 0.0 0.0 0.0 0.0 0.0 0.0 0.0 0.0 0.0
0.008 0.0118 0.0171 0.0242 0.0335 0.0455 0.0606 0.079 0.1009 0.1263 0.1549 0.1861 0.2191 0.2528 0.2857 0.3164 0.3433 0.365 0.3802 0.3881 0.3881 0.3802 0.365 0.3433 0.3164 0.2857 0.2528 0.2191 0.1861 0.1549 0.1263 0.1009 0.079 0.0606 0.0455 0.0335 0.0242 0.0171 0.0118 0.008 0.0053 0.0035 0.0022 0.0014 0.0009 0.0005 0.0003 0.0002 0.0001 0.0001 0.0 0.0 0.0 0.0 0.0 0.0 0.0 0.0 0.0 0.0
0.0101 0.0148 0.0214 0.0303 0.042 0.057 0.0758 0.0989 0.1263 0.1581 0.1939 0.233 0.2743 0.3164 0.3576 0.3961 0.4298 0.4569 0.4759 0.4857 0.4857 0.4759 0.4569 0.4298 0.3961 0.3576 0.3164 0.2743 0.233 0.1939 0.1581 0.1263 0.0989 0.0758 0.057 0.042 0.0303 0.0214 0.0148 0.0101 0.0067 0.0044 0.0028 0.0017 0.0011 0.0006 0.0004 0.0002 0.0001 0.0001 0.0 0.0 0.0 0.0 0.0 0.0 0.0 0.0 0.0 0.0
0.0123 0.0182 0.0262 0.0371 0.0515 0.0699 0.093 0.1213 0.1549 0.1939 0.2378 0.2857 0.3364 0.3881 0.4386 0.4857 0.5271 0.5603 0.5837 0.5957 0.5957 0.5837 0.5603 0.5271 0.4857 0.4386 0.3881 0.3364 0.2857 0.2378 0.1939 0.1549 0.1213 0.093 0.0699 0.0515 0.0371 0.0262 0.0182 0.0123 0.0082 0.0053 0.0034 0.0021 0.0013 0.0008 0.0005 0.0003 0.0002 0.0001 0.0 0.0 0.0 0.0 0.0 0.0 0.0 0.0 0.0 0.0
0.0148 0.0218 0.0315 0.0446 0.0618 0.084 0.1118 0.1457 0.1861 0.233 0.2857 0.3433 0.4042 0.4663 0.5271 0.5837 0.6333 0.6733 0.7014 0.7158 0.7158 0.7014 0.6733 0.6333 0.5837 0.5271 0.4663 0.4042 0.3433 0.2857 0.233 0.1861 0.1457 0.1118 0.084 0.0618 0.0446 0.0315 0.0218 0.0148 0.0099 0.0064 0.0041 0.0026 0.0016 0.0009 0.0006 0.0003 0.0002 0.0001 0.0001 0.0 0.0 0.0 0.0 0.0 0.0 0.0 0.0 0.0
0.0174 0.0257 0.0371 0.0525 0.0728 0.0989 0.1316 0.1715 0.2191 0.2743 0.3364 0.4042 0.4759 0.549 0.6205 0.6872 0.7456 0.7927 0.8257 0.8428 0.8428 0.8257 0.7927 0.7456 0.6872 0.6205 0.549 0.4759 0.4042 0.3364 0.2743 0.2191 0.1715 0.1316 0.0989 0.0728 0.0525 0.0371 0.0257 0.0174 0.0116 0.0076 0.0048 0.003 0.0018 0.0011 0.0007 0.0004 0.0002 0.0001 0.0001 0.0 0.0 0.0 0.0 0.0 0.0 0.0 0.0 0.0
0.0201 0.0297 0.0428 0.0606 0.084 0.1141 0.1518 0.1979 0.2528 0.3164 0.3881 0.4663 0.549 0.6333 0.7158 0.7927 0.8601 0.9144 0.9525 0.9722 0.9722 0.9525 0.9144 0.8601 0.7927 0.7158 0.6333 0.549 0.4663 0.3881 0.3164 0.2528 0.1979 0.1518 0.1141 0.084 0.0606 0.0428 0.0297 0.0201 0.0134 0.0087 0.0056 0.0035 0.0021 0.0013 0.0008 0.0004 0.0002 0.0001 0.0001 0.0 0.0 0.0 0.0 0.0 0.0 0.0 0.0 0.0
0.0227 0.0335 0.0484 0.0685 0.0949 0.1289 0.1715 0.2237 0.2857 0.3576 0.4386 0.5271 0.6205 0.7158 0.8091 0.896 0.9722 1.0336 1.0766 1.0988 1.0988 1.0766 1.0336 0.9722 0.896 0.8091 0.7158 0.6205 0.5271 0.4386 0.3576 0.2857 0.2237 0.1715 0.1289 0.0949 0.0685 0.0484 0.0335 0.0227 0.0151 0.0099 0.0063 0.0039 0.0024 0.0014 0.0009 0.0005 0.0003 0.0002 0.0001 0.0 0.0 0.0 0.0 0.0 0.0 0.0 0.0 0.0
0.0252 0.0371 0.0536 0.0758 0.1051 0.1428 0.19 0.2477 0.3164 0.3961 0.4857 0.5837 0.6872 0.7927 0.896 0.9922 1.0766 1.1446 1.1923 1.2169 1.2169 1.1923 1.1446 1.0766 0.9922 0.896 0.7927 0.6872 0.5837 0.4857 0.3961 0.3164 0.2477 0.19 0.1428 0.1051 0.0758 0.0536 0.0371 0.0252 0.0167 0.0109 0.007 0.0044 0.0027 0.0016 0.0009 0.0005 0.0003 0.0002 0.0001 0.0 0.0 0.0 0.0 0.0 0.0 0.0 0.0 0.0
0.0273 0.0403 0.0582 0.0823 0.1141 0.1549 0.2061 0.2688 0.3433 0.4298 0.5271 0.6333 0.7456 0.8601 0.9722 1.0766 1.1682 1.242 1.2937 1.3204 1.3204 1.2937 1.242 1.1682 1.0766 0.9722 0.8601 0.7456 0.6333 0.5271 0.4298 0.3433 0.2688 0.2061 0.1549 0.1141 0.0823 0.0582 0.0403 0.0273 0.0182 0.0118 0.0076 0.0047 0.0029 0.0017 0.001 0.0006 0.0003 0.0002 0.0001 0.0001 0.0 0.0 0.0 0.0 0.0 0.0 0.0 0.0
0.0291 0.0428 0.0618 0.0875 0.1213 0.1647 0.2191 0.2857 0.365 0.4569 0.5603 0.6733 0.7927 0.9144 1.0336 1.1446 1.242 1.3204 1.3754 1.4037 1.4037 1.3754 1.3204 1.242 1.1446 1.0336 0.9144 0.7927 0.6733 0.5603 0.4569 0.365 0.2857 0.2191 0.1647 0.1213 0.0875 0.0618 0.0428 0.0291 0.0193 0.0126 0.008 0.005 0.0031 0.0018 0.0011 0.0006 0.0004 0.0002 0.0001 0.0001 0.0 0.0 0.0 0.0 0.0 0.0 0.0 0.0
0.0303 0.0446 0.0644 0.0911 0.1263 0.1715 0.2283 0.2976 0.3802 0.4759 0.5837 0.7014 0.8257 0.9525 1.0766 1.1923 1.2937 1.3754 1.4327 1.4622 1.4622 1.4327 1.3754 1.2937 1.1923 1.0766 0.9525 0.8257 0.7014 0.5837 0.4759 0.3802 0.2976 0.2283 0.1715 0.1263 0.0911 0.0644 0.0446 0.0303 0.0201 0.0131 0.0084 0.0052 0.0032 0.0019 0.0011 0.0007 0.0004 0.0002 0.0001 0.0001 0.0 0.0 0.0 0.0 0.0 0.0 0.0 0.0
0.0309 0.0455 0.0657 0.093 0.1289 0.1751 0.233 0.3038 0.3881 0.4857 0.5957 0.7158 0.8428 0.9722 1.0988 1.2169 1.3204 1.4037 1.4622 1.4924 1.4924 1.4622 1.4037 1.3204 1.2169 1.0988 0.9722 0.8428 0.7158 0.5957 0.4857 0.3881 0.3038 0.233 0.1751 0.1289 0.093 0.0657 0.0455 0.0309 0.0205 0.0134 0.0085 0.0053 0.0033 0.002 0.0012 0.0007 0.0004 0.0002 0.0001 0.0001 0.0 0.0 0.0 0.0 0.0 0.0 0.0 0.0
0.0309 0.0455 0.0657 0.093 0.1289 0.1751 0.233 0.3038 0.3881 0.4857 0.5957 0.7158 0.8428 0.9722 1.0988 1.2169 1.3204 1.4037 1.4622 1.4924 1.4924 1.4622 1.4037 1.3204 1.2169 1.0988 0.9722 0.8428 0.7158 0.5957 0.4857 0.3881 0.3038 0.233 0.1751 0.1289 0.093 0.0657 0.0455 0.0309 0.0205 0.0134 0.0085 0.0053 0.0033 0.002 0.0012 0.0007 0.0004 0.0002 0.0001 0.0001 0.0 0.0 0.0 0.0 0.0 0.0 0.0 0.0
0.0303 0.0446 0.0644 0.0911 0.1263 0.1715 0.2283 0.2976 0.3802 0.4759 0.5837 0.7014 0.8257 0.9525 1.0766 1.1923 1.2937 1.3754 1.4327 1.4622 1.4622 1.4327 1.3754 1.2937 1.1923 1.0766 0.9525 0.8257 0.7014 0.5837 0.4759 0.3802 0.2976 0.2283 0.1715 0.1263 0.0911 0.0644 0.0446 0.0303 0.0201 0.0131 0.0084 0.0052 0.0032 0.0019 0.0011 0.0007 0.0004 0.0002 0.0001 0.0001 0.0 0.0 0.0 0.0 0.0 0.0 0.0 0.0
0.0291 0.0428 0.0618 0.0875 0.1213 0.1647 0.2191 0.2857 0.365 0.4569 0.5603 0.6733 0.7927 0.9144 1.0336 1.1446 1.242 1.3204 1.3754 1.4037 1.4037 1.3754 1.3204 1.242 1.1446 1.0336 0.9144 0.7927 0.6733 0.5603 0.4569 0.365 0.2857 0.2191 0.1647 0.1213 0.0875 0.0618 0.0428 0.0291 0.0193 0.0126 0.008 0.005 0.0031 0.0018 0.0011 0.0006 0.0004 0.0002 0.0001 0.0001 0.0 0.0 0.0 0.0 0.0 0.0 0.0 0.0
0.0273 0.0403 0.0582 0.0823 0.1141 0.1549 0.2061 0.2688 0.3433 0.4298 0.5271 0.6333 0.7456 0.8601 0.9722 1.0766 1.1682 1.242 1.2937 1.3204 1.3204 1.2937 1.242 1.1682 1.0766 0.9722 0.8601 0.7456 0.6333 0.5271 0.4298 0.3433 0.2688 0.2061 0.1549 0.1141 0.0823 0.0582 0.0403 0.0273 0.0182 0.0118 0.0076 0.0047 0.0029 0.0017 0.001 0.0006 0.0003 0.0002 0.0001 0.0001 0.0 0.0 0.0 0.0 0.0 0.0 0.0 0.0
0.0252 0.0371 0.0536 0.0758 0.1051 0.1428 0.19 0.2477 0.3164 0.3961 0.4857 0.5837 0.6872 0.7927 0.896 0.9922 1.0766 1.1446 1.1923 1.2169 1.2169 1.1923 1.1446 1.0766 0.9922 0.896 0.7927 0.6872 0.5837 0.4857 0.3961 0.3164 0.2477 0.19 0.1428 0.1051 0.0758 0.0536 0.0371 0.0252 0.0167 0.0109 0.007 0.0044 0.0027 0.0016 0.0009 0.0005 0.0003 0.0002 0.0001 0.0 0.0 0.0 0.0 0.0 0.0 0.0 0.0 0.0
0.0227 0.0335 0.0484 0.0685 0.0949 0.1289 0.1715 0.2237 0.2857 0.3576 0.4386 0.5271 0.6205 0.7158 0.8091 0.896 0.9722 1.0336 1.0766 1.0988 1.0988 1.0766 1.0336 0.9722 0.896 0.8091 0.7158 0.6205 0.5271 0.4386 0.3576 0.2857 0.2237 0.1715 0.1289 0.0949 0.0685 0.0484 0.0335 0.0227 0.0151 0.0099 0.0063 0.0039 0.0024 0.0014 0.0009 0.0005 0.0003 0.0002 0.0001 0.0 0.0 0.0 0.0 0.0 0.0 0.0 0.0 0.0
0.0201 0.0297 0.0428 0.0606 0.084 0.1141 0.1518 0.1979 0.2528 0.3164 0.3881 0.4663 0.549 0.6333 0.7158 0.7927 0.8601 0.9144 0.9525 0.9722 0.9722 0.9525 0.9144 0.8601 0.7927 0.7158 0.6333 0.549 0.4663 0.3881 0.3164 0.2528 0.1979 0.1518 0.1141 0.084 0.0606 0.0428 0.0297 0.0201 0.0134 0.0087 0.0056 0.0035 0.0021 0.0013 0.0008 0.0004 0.0002 0.0001 0.0001 0.0 0.0 0.0 0.0 0.0 0.0 0.0 0.0 0.0
0.0174 0.0257 0.0371 0.0525 0.0728 0.0989 0.1316 0.1715 0.2191 0.2743 0.3364 0.4042 0.4759 0.549 0.6205 0.6872 0.7456 0.7927 0.8257 0.8428 0.8428 0.8257 0.7927 0.7456 0.6872 0.6205 0.549 0.4759 0.4042 0.3364 0.2743 0.2191 0.1715 0.1316 0.0989 0.0728 0.0525 0.0371 0.0257 0.0174 0.0116 0.0076 0.0048 0.003 0.0018 0.0011 0.0007 0.0004 0.0002 0.0001 0.0001 0.0 0.0 0.0 0.0 0.0 0.0 0.0 0.0 0.0
0.0148 0.0218 0.0315 0.0446 0.0618 0.084 0.1118 0.1457 0.1861 0.233 0.2857 0.3433 0.4042 0.4663 0.5271 0.5837 0.6333 0.6733 0.7014 0.7158 0.7158 0.7014 0.6733 0.6333 0.5837 0.5271 0.4663 0.4042 0.3433 0.2857 0.233 0.1861 0.1457 0.1118 0.084 0.0618 0.0446 0.0315 0.0218 0.0148 0.0099 0.0064 0.0041 0.0026 0.0016 0.0009 0.0006 0.0003 0.0002 0.0001 0.0001 0.0 0.0 0.0 0.0 0.0 0.0 0.0 0.0 0.0
0.0123 0.0182 0.0262 0.0371 0.0515 0.0699 0.093 0.1213 0.1549 0.1939 0.2378 0.2857 0.3364 0.3881 0.4386 0.4857 0.5271 0.5603 0.5837 0.5957 0.5957 0.5837 0.5603 0.5271 0.4857 0.4386 0.3881 0.3364 0.2857 0.2378 0.1939 0.1549 0.1213 0.093 0.0699 0.0515 0.0371 0.0262 0.0182 0.0123 0.0082 0.0053 0.0034 0.0021 0.0013 0.0008 0.0005 0.0003 0.0002 0.0001 0.0 0.0 0.0 0.0 0.0 0.0 0.0 0.0 0.0 0.0
0.0101 0.0148 0.0214 0.0303 0.042 0.057 0.0758 0.0989 0.1263 0.1581 0.1939 0.233 0.2743 0.3164 0.3576 0.3961 0.4298 0.4569 0.4759 0.4857 0.4857 0.4759 0.4569 0.4298 0.3961 0.3576 0.3164 0.2743 0.233 0.1939 0.1581 0.1263 0.0989 0.0758 0.057 0.042 0.0303 0.0214 0.0148 0.0101 0.0067 0.0044 0.0028 0.0017 0.0011 0.0006 0.0004 0.0002 0.0001 0.0001 0.0 0.0 0.0 0.0 0.0 0.0 0.0 0.0 0.0 0.0
0.008 0.0118 0.0171 0.0242 0.0335 0.0455 0.0606 0.079 0.1009 0.1263 0.1549 0.1861 0.2191 0.2528 0.2857 0.3164 0.3433 0.365 0.3802 0.3881 0.3881 0.3802 0.365 0.3433 0.3164 0.2857 0.2528 0.2191 0.1861 0.1549 0.1263 0.1009 0.079 0.0606 0.0455 0.0335 0.0242 0.0171 0.0118 0.008 0.0053 0.0035 0.0022 0.0014 0.0009 0.0005 0.0003 0.0002 0.0001 0.0001 0.0 0.0 0.0 0.0 0.0 0.0 0.0 0.0 0.0 0.0
0.0063 0.0093 0.0134 0.0189 0.0262 0.0356 0.0474 0.0618 0.079 0.0989 0.1213 0.1457 0.1715 0.1979 0.2237 0.2477 0.2688 0.2857 0.2976 0.3038 0.3038 0.2976 0.2857 0.2688 0.2477 0.2237 0.1979 0.1715 0.1457 0.1213 0.0989 0.079 0.0618 0.0474 0.0356 0.0262 0.0189 0.0134 0.0093 0.0063 0.0042 0.0027 0.0017 0.0011 0.0007 0.0004 0.0002 0.0001 0.0001 0.0 0.0 0.0 0.0 0.0 0.0 0.0 0.0 0.0 0.0 0.0
0.0048 0.0071 0.0103 0.0145 0.0201 0.0273 0.0364 0.0474 0.0606 0.0758 0.093 0.1118 0.1316 0.1518 0.1715 0.19 0.2061 0.2191 0.2283 0.233 0.233 0.2283 0.2191 0.2061 0.19 0.1715 0.1518 0.1316 0.1118 0.093 0.0758 0.0606 0.0474 0.0364 0.0273 0.0201 0.0145 0.0103 0.0071 0.0048 0.0032 0.0021 0.0013 0.0008 0.0005 0.0003 0.0002 0.0001 0.0001 0.0 0.0 0.0 0.0 0.0 0.0 0.0 0.0 0.0 0.0 0.0
0.0036 0.0053 0.0077 0.0109 0.0151 0.0205 0.0273 0.0356 0.0455 0.057 0.0699 0.084 0.0989 0.1141 0.1289 0.1428 0.1549 0.1647 0.1715 0.1751 0.1751 0.1715 0.1647 0.1549 0.1428 0.1289 0.1141 0.0989 0.084 0.0699 0.057 0.0455 0.0356 0.0273 0.0205 0.0151 0.0109 0.0077 0.0053 0.0036 0.0024 0.0016 0.001 0.0006 0.0004 0.0002 0.0001 0.0001 0.0 0.0 0.0 0.0 0.0 0.0 0.0 0.0 0.0 0.0 0.0 0.0
0.0027 0.0039 0.0057 0.008 0.0111 0.0151 0.0201 0.0262 0.0335 0.042 0.0515 0.0618 0.0728 0.084 0.0949 0.1051 0.1141 0.1213 0.1263 0.1289 0.1289 0.1263 0.1213 0.1141 0.1051 0.0949 0.084 0.0728 0.0618 0.0515 0.042 0.0335 0.0262 0.0201 0.0151 0.0111 0.008 0.0057 0.0039 0.0027 0.0018 0.0012 0.0007 0.0005 0.0003 0.0002 0.0001 0.0001 0.0 0.0 0.0 0.0 0.0 0.0 0.0 0.0 0.0 0.0 0.0 0.0
0.0019 0.0028 0.0041 0.0058 0.008 0.0109 0.0145 0.0189 0.0242 0.0303 0.0371 0.0446 0.0525 0.0606 0.0685 0.0758 0.0823 0.0875 0.0911 0.093 0.093 0.0911 0.0875 0.0823 0.0758 0.0685 0.0606 0.0525 0.0446 0.0371 0.0303 0.0242 0.0189 0.0145 0.0109 0.008 0.0058 0.0041 0.0028 0.0019 0.0013 0.0008 0.0005 0.0003 0.0002 0.0001 0.0001 0.0 0.0 0.0 0.0 0.0 0.0 0.0 0.0 0.0 0.0 0.0 0.0 0.0
0.0014 0.002 0.0029 0.0041 0.0057 0.0077 0.0103 0.0134 0.0171 0.0214 0.0262 0.0315 0.0371 0.0428 0.0484 0.0536 0.0582 0.0618 0.0644 0.0657 0.0657 0.0644 0.0618 0.0582 0.0536 0.0484 0.0428 0.0371 0.0315 0.0262 0.0214 0.0171 0.0134 0.0103 0.0077 0.0057 0.0041 0.0029 0.002 0.0014 0.0009 0.0006 0.0004 0.0002 0.0001 0.0001 0.0001 0.0 0.0 0.0 0.0 0.0 0.0 0.0 0.0 0.0 0.0 0.0 0.0 0.0
0.0009 0.0014 0.002 0.0028 0.0039 0.0053 0.0071 0.0093 0.0118 0.0148 0.0182 0.0218 0.0257 0.0297 0.0335 0.0371 0.0403 0.0428 0.0446 0.0455 0.0455 0.0446 0.0428 0.0403 0.0371 0.0335 0.0297 0.0257 0.0218 0.0182 0.0148 0.0118 0.0093 0.0071 0.0053 0.0039 0.0028 0.002 0.0014 0.0009 0.0006 0.0004 0.0003 0.0002 0.0001 0.0001 0.0 0.0 0.0 0.0 0.0 0.0 0.0 0.0 0.0 0.0 0.0 0.0 0.0 0.0
0.0006 0.0009 0.0014 0.0019 0.0027 0.0036 0.0048 0.0063 0.008 0.0101 0.0123 0.0148 0.0174 0.0201 0.0227 0.0252 0.0273 0.0291 0.0303 0.0309 0.0309 0.0303 0.0291 0.0273 0.0252 0.0227 0.0201 0.0174 0.0148 0.0123 0.0101 0.008 0.0063 0.0048 0.0036 0.0027 0.0019 0.0014 0.0009 0.0006 0.0004 0.0003 0.0002 0.0001 0.0001 0.0 0.0 0.0 0.0 0.0 0.0 0.0 0.0 0.0 0.0 0.0 0.0 0.0 0.0 0.0
0.0004 0.0006 0.0009 0.0013 0.0018 0.0024 0.0032 0.0042 0.0053 0.0067 0.0082 0.0099 0.0116 0.0134 0.0151 0.0167 0.0182 0.0193 0.0201 0.0205 0.0205 0.0201 0.0193 0.0182 0.0167 0.0151 0.0134 0.0116 0.0099 0.0082 0.0067 0.0053 0.0042 0.0032 0.0024 0.0018 0.0013 0.0009 0.0006 0.0004 0.0003 0.0002 0.0001 0.0001 0.0 0.0 0.0 0.0 0.0 0.0 0.0 0.0 0.0 0.0 0.0 0.0 0.0 0.0 0.0 0.0
0.0003 0.0004 0.0006 0.0008 0.0012 0.0016 0.0021 0.0027 0.0035 0.0044 0.0053 0.0064 0.0076 0.0087 0.0099 0.0109 0.0118 0.0126 0.0131 0.0134 0.0134 0.0131 0.0126 0.0118 0.0109 0.0099 0.0087 0.0076 0.0064 0.0053 0.0044 0.0035 0.0027 0.0021 0.0016 0.0012 0.0008 0.0006 0.0004 0.0003 0.0002 0.0001 0.0001 0.0 0.0 0.0 0.0 0.0 0.0 0.0 0.0 0.0 0.0 0.0 0.0 0.0 0.0 0.0 0.0 0.0
